X: 24
T: The Blarney Pilgrim
R: jig
M: 6/8
L: 1/8
K: Dmix
"D" D3 DEG | A2G ABc | "G" BAG "D" AGE | "C" GEA GED|
"D" D3 DEG | A2G ABc | "G" BAG "D" AGE | "C" GED D3:|
|: "G" ded dBG  |      AGA BGE | "G" ded dBG | "D" ABA "G" GBd |
   "Em" g2e dBG | "Bm" AGA BGE | "C" BAB AGE | "D" GED D3     :|
|: "D" A2D "G" B2D | "D" A2D ABc | "C" BAG AGE | GEA GED     |
   "D" ADD "G" BDD | "D" ADD ABc | "C" BAG AGE | GED "D" D3 :|

